tenants/vtwonen/icons/info.svg

<svg fill="none" height="24" viewBox="0 0 24 24" width="24" xmlns="http://www.w3.org/2000/svg"><path d="m12 3.29032c4.7831 0 8.7097 3.87399 8.7097 8.70968 0 4.8101-3.8956 8.7097-8.7097 8.7097-4.80823 0-8.70968-3.8937-8.70968-8.7097 0-4.80657 3.89524-8.70968 8.70968-8.70968zm0-1.29032c-5.52246 0-10 4.47915-10 10 0 5.5241 4.47754 10 10 10 5.5225 0 10-4.4759 10-10 0-5.52085-4.4775-10-10-10zm-1.4516 13.871h.4133l.0706-4.8387h-.4839c-.2672 0-.4839-.2167-.4839-.4839v-.3226c0-.26721.2167-.48386.4839-.48386h1.9355c.2672 0 .4838.21665.4838.48386v5.6452h.4839c.2672 0 .4839.2166.4839.4838v.3226c0 .2672-.2167.4839-.4839.4839h-2.9032c-.2672 0-.4839-.2167-.4839-.4839v-.3226c0-.2672.2167-.4838.4839-.4838zm1.4516-9.93955c-.7126 0-1.2903.5777-1.2903 1.29032s.5777 1.29033 1.2903 1.29033 1.2903-.57771 1.2903-1.29033-.5777-1.29032-1.2903-1.29032z" fill="#000"/></svg>

<svg width="24" height="24" viewBox="0 0 24 24" fill="none" xmlns="http://www.w3.org/2000/svg">
<path d="M12 3.29032C16.7831 3.29032 20.7097 7.16431 20.7097 12C20.7097 16.8101 16.8141 20.7097 12 20.7097C7.19177 20.7097 3.29032 16.816 3.29032 12C3.29032 7.19343 7.18556 3.29032 12 3.29032ZM12 2C6.47754 2 2 6.47915 2 12C2 17.5241 6.47754 22 12 22C17.5225 22 22 17.5241 22 12C22 6.47915 17.5225 2 12 2ZM10.5484 15.871H10.9617L11.0323 11.0323H10.5484C10.2812 11.0323 10.0645 10.8156 10.0645 10.5484V10.2258C10.0645 9.95859 10.2812 9.74194 10.5484 9.74194H12.4839C12.7511 9.74194 12.9677 9.95859 12.9677 10.2258V15.871H13.4516C13.7188 15.871 13.9355 16.0876 13.9355 16.3548V16.6774C13.9355 16.9446 13.7188 17.1613 13.4516 17.1613H10.5484C10.2812 17.1613 10.0645 16.9446 10.0645 16.6774V16.3548C10.0645 16.0876 10.2812 15.871 10.5484 15.871ZM12 5.93145C11.2874 5.93145 10.7097 6.50915 10.7097 7.22177C10.7097 7.93439 11.2874 8.5121 12 8.5121C12.7126 8.5121 13.2903 7.93439 13.2903 7.22177C13.2903 6.50915 12.7126 5.93145 12 5.93145Z" fill="black"/>
</svg>
